X: 1
T: Cuillins of Skye
T: 8x32S 3C (Roy Goldring/4 Scottish 1978)
P: Farewell to Cramond
R: strathspey
C: by Muriel Johnstone
C: Arr. T. Traub 5-28-2005
M: 4/4
L: 1/8
K: A
E/D/|"A"C<A,C>E A>Bc>A|"Bm"d<FF>A "E7"G/A/B/A/ G/F/E/D/|"A"C<A,C>E "F#m"A>BcA|"D"f<f"E"e>d "A"c<A A :|
c |"A"e<ef>e "E"d<cc>B|"A"A<Ac>A "A7"E2 E>A|"D"F<Ff>e "Bm"dcBA|"B7"B<FB>A "E"G2 FE|
"A"e<ea>g "E"feed|"F#m"c<A"D"f>e "A"e3 E|"D"F<DF>A "Bm"d>efd|"A"e<c"E"B>A "A"A2 |]
